X:1
T:Staines Morris
C:Traditional
M:4/4
L:1/4
Q:1/4=112
K:Dm
D2 F2 | A2 G2 | F2 E2 | D4 | E2 F2 | G2 F2 | E2 D2 | D4 |
A2 d2 | c2 B2 | A2 G2 | F4 | G2 A2 | B2 A2 | G2 F2 | D4 |]
